X: 24
T:Maid behind the Bar, The
M:C|
L:1/8
R:Reel
K:D
B[|:~A3B AFED|FAAB ABde|fBBA Bcde|fdgf edBA|!
FAAB AFED|FAAB ABde|fBBA BcdB|1AFEF D3E:|2AFEF D3g|!
|:faag fdde|fdad fddf|efga beef|gebe geeg|!
fgaf bfaf|defd efde|fBBA BcdB|1AFEF D3g:|2AFEF D3B|]!
